icons/OpenLotus/actions/16/view-object-histogram-linear.svg

<?xml version="1.0" encoding="UTF-8" standalone="no"?>
<svg
   xmlns:dc="http://purl.org/dc/elements/1.1/"
   xmlns:cc="http://creativecommons.org/ns#"
   xmlns:rdf="http://www.w3.org/1999/02/22-rdf-syntax-ns#"
   xmlns:svg="http://www.w3.org/2000/svg"
   xmlns="http://www.w3.org/2000/svg"
   xmlns:sodipodi="http://sodipodi.sourceforge.net/DTD/sodipodi-0.dtd"
   xmlns:inkscape="http://www.inkscape.org/namespaces/inkscape"
   height="16"
   viewBox="0 0 16 16"
   width="16"
   version="1.1"
   id="svg4"
   sodipodi:docname="view-object-histogram-linear.svg"
   inkscape:version="0.92+devel (58ef38f81c, 2017-09-13, custom)">
  <defs
     id="defs8" />
  <metadata
     id="metadata10">
    <rdf:RDF>
      <cc:Work
         rdf:about="">
        <dc:format>image/svg+xml</dc:format>
        <dc:type
           rdf:resource="http://purl.org/dc/dcmitype/StillImage" />
        <dc:title></dc:title>
      </cc:Work>
    </rdf:RDF>
  </metadata>
  <sodipodi:namedview
     pagecolor="#002466"
     bordercolor="#ffffff"
     inkscape:document-rotation="0"
     borderopacity="0.13333333"
     objecttolerance="10"
     gridtolerance="10"
     guidetolerance="10"
     inkscape:pageopacity="0"
     inkscape:pageshadow="2"
     inkscape:window-width="1920"
     inkscape:window-height="1027"
     id="namedview6"
     showgrid="false"
     borderlayer="true"
     inkscape:showpageshadow="false"
     inkscape:zoom="32.482718"
     inkscape:cx="10.104219"
     inkscape:cy="10.525131"
     inkscape:window-x="0"
     inkscape:window-y="24"
     inkscape:window-maximized="1"
     inkscape:current-layer="svg4" />
  <g
     id="g846"
     inkscape:label="#view-object-histogram-linear"
     style="stroke:none">
    <path
       inkscape:connector-curvature="0"
       inkscape:label="#boundary"
       style="stroke:none"
       id="path2"
       stroke-width=".25455"
       stroke-linecap="round"
       fill="none"
       d="M 0,-4.9999999e-8 H 16 V 16 H 0 Z" />
    <path
       inkscape:label="#"
       id="rect1380"
       d="M 6.0004889,2 V 3.9995117 H 5.0000006 V 6.0004883 H 3.9995123 v 3 H 3.0004889 V 12.999512 H 12.999513 V 12.000488 H 12.000489 V 11 9.999512 H 11.000001 V 11 H 9.9995126 V 9.999512 H 9.0004889 V 6.0004883 H 8.0000006 v -3 H 6.9995123 V 2 Z"
       style="opacity:0.6;fill:#d0d0d0;stroke:none;stroke-width:1"
       inkscape:connector-curvature="0" />
    <path
       inkscape:label="#"
       inkscape:connector-curvature="0"
       style="fill:#00ff00;stroke:none;stroke-width:1"
       d="M 2.0000002,2.0000004 V 12.999512 14 H 3.0004889 14 V 12.999512 H 3.0004889 V 2.0000004 Z"
       id="path1395" />
  </g>
</svg>

<svg xmlns="http://www.w3.org/2000/svg" viewBox="0 0 16 16">
  <defs id="defs3051">
    <style type="text/css" id="current-color-scheme">
      .ColorScheme-Text {
        color:#f2f2f2;
      }
      </style>
  </defs>
 <path style="fill:currentColor;fill-opacity:1;stroke:none" 
       d="m 2,2 0,11 0,1 1,0 11,0 0,-1 -1,0 0,-1 -1,0 0,-1 0,-1 -1,0 0,1 -1,0 0,-1 L 9,10 9,6 8,6 8,3 7,3 7,2 6,2 6,4 5,4 5,6 4,6 4,9 3,9 3,2 Z"
     class="ColorScheme-Text"
     />
</svg>
